X:52
T:Gan Ainm
R:Jig
S:Bernie Stocks, Belfast (fiddle).
H:From Terry Bingham.
N:As played
M:6/8
Z:Bernie Stocks
K:G
|: G2A BGG | dGG ABc | Add {e}d2B | AGA BGE | DEG BGG | dGG ABc |  
Add {e}d2B |1 AGF G2D :|2 AGF G2A |: ~B3 d2B | dge dBG | {d}cBA BAG | 
EAA AGA | {d}BAB d2B | dge dBG | {d}cBA (3BcdB |1 AGF G2A :|2 AGF G2D ||
<end>
<start>
